X:248
T:John Riley the Shepard
C:
N:Transcribed by Tristan Scroggins Based on Art Stamper's version
R:bluegrass
L:1/8
Q:1/4=200
M:4/4
K:C
z7/1e | z2 d2 e2 g2 | ed BA G2 z2 | AB zd BA G^F | E2 E4 ^de | z2 d2 e2 g2 | ed BA G2 A2 | 
Bc d2 BA G2 | A3B A4 | e2 ed e2 g2 | ed BA G2 G2 | AB2d BA G^F | E2 [e2B2] E2 [e2B2] | 
^d/e3/2 z[ee] [ee]z g2 | ed BA GB AG | Bc d2 BA G2 | A3A A4 | AB zc BA G^F | E2 E4 [AD][BE] | 
zA Bd BA G^F | 
K:C#
=E2 E4 [=A=D][=BE] | z2 =B=d B=A =GF | =E2 [=B4E4] B=d | =e2 =d2 =B=A =G2 | =A2 A6 | 


